packages/components/src/components/icon/common/ic-withdraw-request-verification.svg

<svg width="128" height="129" viewBox="0 0 128 129" fill="none" xmlns="http://www.w3.org/2000/svg">
<path d="M38.5449 50.5757V73.7283L55.8097 61.9749L38.5449 50.5757Z" fill="#85ACB0"/>
<path d="M87.9265 48.0312H40.1162L64.3976 64.0787L87.9265 48.0312Z" fill="#85ACB0"/>
<path d="M72.1445 62.3981L89.4536 73.8194V50.6226L72.1445 62.3981Z" fill="#85ACB0"/>
<path d="M64.42 67.6653L58.5101 63.7476L38.5449 77.3602V80.9681H89.454V77.4045L69.4888 64.2124L64.42 67.6653Z" fill="#85ACB0"/>
<path d="M64.0004 28.6874C83.7443 28.6874 99.8138 44.757 99.8138 64.5009C99.8138 84.2448 83.7443 100.314 64.0004 100.314C44.2565 100.314 28.1869 84.2448 28.1869 64.5009C28.1869 44.757 44.2565 28.6874 64.0004 28.6874ZM64.0004 23.8179C41.534 23.8179 23.3174 42.0345 23.3174 64.5009C23.3174 86.9673 41.534 105.184 64.0004 105.184C86.4668 105.184 104.683 86.9673 104.683 64.5009C104.683 42.0345 86.4668 23.8179 64.0004 23.8179Z" fill="#85ACB0"/>
<g opacity="0.6">
<path opacity="0.6" d="M62.4726 112.996C62.4284 111.668 63.513 110.562 64.8632 110.562C66.1912 110.539 67.2979 111.602 67.3201 112.93C67.3422 114.28 66.2576 115.365 64.9296 115.409C64.9074 115.409 64.9074 115.409 64.8853 115.409C63.5794 115.409 62.4948 114.324 62.4726 112.996ZM51.8039 113.926C50.4979 113.616 49.7011 112.288 50.0331 111.004C50.343 109.698 51.6489 108.901 52.9549 109.233C54.2608 109.543 55.0355 110.849 54.7256 112.155C54.46 113.24 53.4639 113.992 52.3572 113.992C52.1801 113.992 51.9809 113.97 51.8039 113.926ZM75.045 111.779C74.6687 110.495 75.4213 109.145 76.705 108.791C77.9888 108.415 79.3169 109.167 79.6932 110.451C80.0473 111.735 79.3169 113.063 78.0331 113.439C77.7896 113.505 77.5904 113.528 77.3469 113.528C76.3066 113.528 75.3327 112.841 75.045 111.779ZM39.4307 109.101C38.2798 108.459 37.8592 106.998 38.5011 105.803C39.143 104.63 40.6039 104.209 41.7991 104.851C42.9501 105.493 43.3928 106.954 42.7509 108.149C42.3082 108.946 41.4671 109.388 40.626 109.388C40.2276 109.411 39.8292 109.322 39.4307 109.101ZM86.8426 107.33C86.1564 106.201 86.5327 104.696 87.6837 104.01C88.8126 103.324 90.3177 103.7 91.0039 104.851C91.69 105.98 91.3359 107.485 90.1849 108.149C89.8086 108.392 89.3659 108.503 88.9454 108.503C88.1264 108.525 87.3074 108.083 86.8426 107.33ZM28.8062 101.265C27.8323 100.335 27.7881 98.8082 28.7177 97.8564C29.6473 96.8825 31.1746 96.8382 32.1485 97.7679C33.1224 98.6975 33.1446 100.225 32.2149 101.199C31.7501 101.686 31.1303 101.929 30.4663 101.929C29.8687 101.929 29.2489 101.708 28.8062 101.265ZM97.113 100.003C96.139 99.0517 96.1169 97.5465 97.0687 96.5726C97.9983 95.5987 99.5256 95.5766 100.477 96.5062C101.451 97.458 101.473 98.9853 100.544 99.937C100.057 100.424 99.4371 100.667 98.7952 100.667C98.1975 100.667 97.5999 100.446 97.113 100.003ZM20.4837 90.9505C19.7975 89.7995 20.1517 88.3165 21.3027 87.6303C22.4315 86.922 23.9367 87.2762 24.6228 88.4272C25.309 89.556 24.9327 91.0612 23.8039 91.7473C23.4276 91.9908 22.9849 92.1015 22.5422 92.1015C21.7454 92.1236 20.9485 91.7031 20.4837 90.9505ZM105.148 90.2422C103.997 89.6003 103.576 88.1173 104.218 86.9442C104.882 85.7932 106.343 85.3726 107.538 86.0145C108.689 86.6786 109.11 88.1394 108.468 89.3126C108.025 90.1094 107.206 90.5521 106.365 90.5521C105.945 90.5521 105.524 90.4414 105.148 90.2422ZM15.1272 78.843C14.773 77.5592 15.4813 76.209 16.7651 75.8327C18.0489 75.4786 19.3991 76.1869 19.7754 77.4707C20.1517 78.7544 19.4213 80.1046 18.1375 80.4809C17.9161 80.5473 17.6726 80.5916 17.4734 80.5916C16.411 80.5916 15.4592 79.8833 15.1272 78.843ZM110.416 78.7766C109.11 78.4446 108.335 77.1386 108.667 75.8327C108.977 74.5489 110.305 73.7521 111.589 74.0841C112.895 74.4161 113.669 75.722 113.36 77.028C113.072 78.1125 112.076 78.843 110.991 78.843C110.814 78.843 110.615 78.8209 110.416 78.7766ZM13.113 65.7616C13.113 65.7616 13.113 65.7616 13.113 65.7394C13.113 65.5402 13.1351 65.3189 13.1794 65.1197C13.113 64.9205 13.0908 64.7212 13.0908 64.4999C13.0908 63.1497 14.1754 62.0873 15.5035 62.0873C16.8537 62.0873 17.9383 63.1718 17.9383 64.4999C17.9383 64.6991 17.9161 64.8762 17.8718 65.0754C17.9161 65.2525 17.9604 65.4517 17.9604 65.6509C17.9825 66.979 16.9201 68.0857 15.592 68.1299C15.5699 68.1299 15.5477 68.1299 15.5256 68.1299C14.2197 68.1299 13.1351 67.0675 13.113 65.7616ZM110.062 63.9244C110.039 62.5742 111.124 61.4896 112.474 61.4675C113.802 61.4675 114.909 62.5299 114.909 63.8801C114.931 65.2303 113.847 66.3149 112.496 66.3149H112.474C111.146 66.3149 110.084 65.2525 110.062 63.9244ZM16.5217 54.3402C15.2157 54.0082 14.4632 52.658 14.7952 51.3742C15.1272 50.0904 16.4774 49.3157 17.7612 49.6699C19.045 50.0019 19.8197 51.3299 19.4655 52.6137C19.1999 53.6983 18.2039 54.4288 17.1193 54.4288C16.9422 54.4288 16.743 54.4066 16.5217 54.3402ZM108.379 52.0604C108.003 50.7766 108.756 49.4485 110.039 49.0944C111.345 48.7181 112.673 49.4707 113.028 50.7545C113.382 52.0382 112.651 53.3884 111.345 53.7426C111.146 53.809 110.925 53.8311 110.703 53.8311C109.641 53.8311 108.667 53.145 108.379 52.0604ZM20.7493 42.4319C19.5983 41.7679 19.1999 40.2849 19.8639 39.1118C20.5058 37.9608 22.011 37.5624 23.162 38.2264C24.313 38.9126 24.7114 40.3734 24.0473 41.5465C23.6047 42.3213 22.7857 42.7639 21.9446 42.7639C21.5462 42.7639 21.1256 42.6533 20.7493 42.4319ZM103.643 41.0596C102.956 39.9086 103.355 38.4256 104.506 37.7394C105.635 37.0754 107.14 37.4517 107.804 38.6027C108.49 39.7315 108.092 41.2367 106.963 41.9228C106.586 42.1663 106.144 42.2548 105.723 42.2548C104.926 42.2327 104.107 41.8122 103.643 41.0596ZM27.8987 32.0288C26.9691 31.077 26.9469 29.5497 27.8987 28.6201C28.8505 27.6462 30.3778 27.6462 31.3296 28.5979C32.2813 29.5497 32.2813 31.077 31.3296 32.0066C30.8647 32.4936 30.2228 32.7371 29.6252 32.7371C29.0054 32.7371 28.3635 32.4936 27.8987 32.0288ZM96.2719 31.6303C95.2979 30.6786 95.2979 29.1513 96.2276 28.1995C97.1794 27.2477 98.6845 27.2256 99.6584 28.1552C99.6584 28.1552 99.6584 28.1552 99.6584 28.1774C100.61 29.107 100.632 30.6343 99.6805 31.5861C99.2157 32.073 98.5738 32.3165 97.9541 32.3165C97.3564 32.3386 96.7367 32.0952 96.2719 31.6303ZM37.4829 23.839C36.8189 22.6659 37.2173 21.1829 38.3683 20.5189C39.5193 19.8549 41.0023 20.2311 41.6884 21.3821C42.3746 22.5331 41.9762 24.0382 40.8252 24.7023C40.4489 24.9015 40.0284 25.0122 39.6078 25.0122C38.7446 25.0122 37.9477 24.5916 37.4829 23.839ZM86.7098 24.4145C85.5588 23.7505 85.1382 22.2896 85.8023 21.1165C86.4663 19.9434 87.9272 19.545 89.1224 20.1869C90.2734 20.8288 90.6718 22.3339 90.0299 23.4849C89.5873 24.2596 88.7683 24.7023 87.9272 24.7023C87.4845 24.7244 87.0861 24.6359 86.7098 24.4145ZM48.86 18.3497C48.5058 17.0659 49.2805 15.7379 50.5643 15.3837C51.8481 15.0296 53.1762 15.7821 53.5303 17.0881C53.8845 18.3718 53.1319 19.6999 51.8481 20.0541C51.6047 20.1205 51.4054 20.1426 51.2062 20.1426C50.1217 20.1426 49.1477 19.4343 48.86 18.3497ZM75.5983 19.9213H75.6205C74.3145 19.5671 73.5177 18.239 73.8718 16.9552C74.2039 15.6493 75.5319 14.8746 76.8157 15.2066C78.1217 15.5386 78.8964 16.8667 78.5643 18.1505C78.2766 19.2351 77.3027 19.9655 76.196 19.9655C76.0189 19.9877 75.7975 19.9655 75.5983 19.9213ZM61.2774 16.0256C61.2552 14.6754 62.362 13.5908 63.69 13.5908C65.0402 13.5908 66.1027 14.6754 66.1248 16.0035C66.1248 17.3537 65.0402 18.4383 63.7122 18.4383C63.69 18.4383 63.69 18.4383 63.69 18.4383C62.3841 18.4383 61.2774 17.3537 61.2774 16.0256Z" fill="#85ACB0"/>
</g>
<g style="mix-blend-mode:multiply">
<path d="M94.9883 13.5908L75.0674 22.3118V38.6469C75.0674 47.4343 80.1362 55.5134 88.3037 59.741L94.9883 63.194L101.673 59.7189C109.841 55.4912 114.909 47.4122 114.909 38.6248V22.3118L94.9883 13.5908Z" fill="#FF444F"/>
</g>
<path d="M92.1323 31.9851C92.1323 30.4135 93.4161 29.1297 94.9877 29.1297C96.5592 29.1297 97.843 30.4135 97.843 31.9851V33.3131H101.274V31.9851C101.274 28.51 98.4406 25.6768 94.9655 25.6768C91.4904 25.6768 88.6572 28.51 88.6572 31.9851V33.3131H92.0881V31.9851H92.1323Z" fill="white"/>
<path d="M103.067 35.0171H86.9312C85.8245 35.0171 84.917 35.9246 84.917 37.0313V49.0946C84.917 50.2013 85.8245 51.1088 86.9312 51.1088H103.067C104.174 51.1088 105.081 50.2013 105.081 49.0946V37.0313C105.081 35.9025 104.174 35.0171 103.067 35.0171Z" fill="white"/>
</svg>

<svg width="128" height="129" viewBox="0 0 128 129" fill="none" xmlns="http://www.w3.org/2000/svg"><path d="M38.545 50.576v23.152L55.81 61.975l-17.265-11.4Zm49.382-2.545h-47.81l24.28 16.048 23.53-16.048ZM72.144 62.398l17.31 11.421V50.623l-17.31 11.775Z" fill="#85ACB0"/><path d="m64.42 67.665-5.91-3.917L38.545 77.36v3.608h50.909v-3.564L69.489 64.213l-5.069 3.453Z" fill="#85ACB0"/><path d="M64 28.687c19.744 0 35.814 16.07 35.814 35.814S83.744 100.314 64 100.314c-19.743 0-35.813-16.07-35.813-35.813 0-19.744 16.07-35.814 35.813-35.814Zm0-4.87c-22.466 0-40.683 18.218-40.683 40.684 0 22.466 18.217 40.683 40.683 40.683 22.467 0 40.683-18.217 40.683-40.683 0-22.467-18.216-40.683-40.683-40.683Z" fill="#85ACB0"/><path opacity=".6" d="M62.473 112.996c-.045-1.328 1.04-2.434 2.39-2.434a2.418 2.418 0 0 1 2.457 2.368c.022 1.35-1.062 2.435-2.39 2.479h-.045c-1.306 0-2.39-1.085-2.412-2.413Zm-10.67.93a2.4 2.4 0 0 1-1.77-2.922 2.39 2.39 0 0 1 2.922-1.771c1.306.31 2.08 1.616 1.77 2.922-.265 1.085-1.261 1.837-2.368 1.837-.177 0-.376-.022-.553-.066Zm23.242-2.147a2.404 2.404 0 0 1 1.66-2.988c1.284-.376 2.612.376 2.988 1.66a2.43 2.43 0 0 1-1.66 2.988 2.45 2.45 0 0 1-.686.089 2.385 2.385 0 0 1-2.302-1.749Zm-35.614-2.678c-1.151-.642-1.572-2.103-.93-3.298.642-1.173 2.103-1.594 3.298-.952a2.445 2.445 0 0 1 .952 3.298 2.434 2.434 0 0 1-2.125 1.239 2.165 2.165 0 0 1-1.195-.287Zm47.412-1.771c-.687-1.129-.31-2.634.84-3.32 1.13-.686 2.635-.31 3.32.841.687 1.129.333 2.634-.818 3.298a2.3 2.3 0 0 1-1.24.354c-.819.022-1.638-.42-2.102-1.173Zm-58.037-6.065c-.974-.93-1.018-2.457-.088-3.409a2.419 2.419 0 1 1 3.497 3.343 2.373 2.373 0 0 1-1.749.73c-.597 0-1.217-.221-1.66-.664Zm68.307-1.262a2.398 2.398 0 0 1-.044-3.43 2.392 2.392 0 0 1 3.408-.067c.974.952.996 2.48.067 3.431a2.446 2.446 0 0 1-1.749.73 2.492 2.492 0 0 1-1.682-.664Zm-76.63-9.052c-.686-1.151-.331-2.634.82-3.32a2.392 2.392 0 0 1 3.32.796c.686 1.129.31 2.634-.82 3.32a2.315 2.315 0 0 1-1.26.355c-.798.022-1.595-.399-2.06-1.151Zm84.665-.709c-1.151-.642-1.572-2.125-.93-3.298a2.47 2.47 0 0 1 3.32-.93 2.45 2.45 0 0 1 .93 3.299 2.401 2.401 0 0 1-2.103 1.24c-.42 0-.841-.112-1.217-.31Zm-90.02-11.399c-.355-1.284.353-2.634 1.637-3.01 1.284-.354 2.634.354 3.01 1.638a2.424 2.424 0 0 1-1.637 3.01 2.47 2.47 0 0 1-.665.11c-1.062 0-2.014-.708-2.346-1.748Zm95.288-.066a2.408 2.408 0 0 1-1.749-2.944 2.402 2.402 0 0 1 2.922-1.749 2.44 2.44 0 0 1 1.771 2.944 2.459 2.459 0 0 1-2.944 1.749ZM13.113 65.762v-.023c0-.199.022-.42.066-.62a1.91 1.91 0 0 1-.088-.62 2.404 2.404 0 0 1 2.413-2.412 2.423 2.423 0 0 1 2.368 2.988c.044.177.088.377.088.576a2.452 2.452 0 0 1-2.368 2.479h-.066a2.424 2.424 0 0 1-2.413-2.368Zm96.949-1.838c-.023-1.35 1.062-2.434 2.412-2.456 1.328 0 2.435 1.062 2.435 2.412a2.395 2.395 0 0 1-2.413 2.435h-.022a2.413 2.413 0 0 1-2.412-2.39Zm-93.54-9.584c-1.306-.332-2.059-1.682-1.727-2.966.332-1.284 1.682-2.058 2.966-1.704a2.391 2.391 0 0 1 1.704 2.944c-.265 1.084-1.261 1.815-2.346 1.815-.177 0-.376-.022-.597-.089Zm91.857-2.28a2.382 2.382 0 0 1 1.66-2.966 2.396 2.396 0 0 1 2.989 1.66c.354 1.284-.377 2.634-1.683 2.989-.199.066-.42.088-.642.088a2.386 2.386 0 0 1-2.324-1.77Zm-87.63-9.628c-1.15-.664-1.55-2.147-.885-3.32.642-1.151 2.147-1.55 3.298-.886a2.447 2.447 0 0 1 .885 3.32 2.424 2.424 0 0 1-2.102 1.218 2.38 2.38 0 0 1-1.196-.332Zm82.894-1.372c-.687-1.151-.288-2.634.863-3.32 1.129-.665 2.634-.288 3.298.863.686 1.128.288 2.634-.841 3.32-.377.243-.819.332-1.24.332a2.549 2.549 0 0 1-2.08-1.195Zm-75.744-9.031c-.93-.952-.952-2.48 0-3.409a2.399 2.399 0 0 1 3.43-.022c.952.952.952 2.479 0 3.409a2.385 2.385 0 0 1-1.704.73c-.62 0-1.262-.243-1.726-.708Zm68.373-.399a2.418 2.418 0 0 1-.044-3.43 2.438 2.438 0 0 1 3.43-.045v.022c.952.93.974 2.457.022 3.41a2.397 2.397 0 0 1-1.726.73 2.288 2.288 0 0 1-1.682-.687Zm-58.79-7.791c-.663-1.173-.265-2.656.886-3.32a2.445 2.445 0 0 1 3.32.863 2.42 2.42 0 0 1-.863 3.32c-.376.2-.797.31-1.217.31-.863 0-1.66-.42-2.125-1.173Zm49.228.576a2.422 2.422 0 0 1-.908-3.299c.664-1.173 2.125-1.571 3.32-.93 1.151.643 1.55 2.148.908 3.299a2.424 2.424 0 0 1-2.103 1.217 2.115 2.115 0 0 1-1.217-.288ZM48.86 18.35c-.354-1.284.42-2.612 1.704-2.966a2.407 2.407 0 0 1 2.966 1.704 2.411 2.411 0 0 1-2.324 3.055 2.412 2.412 0 0 1-2.346-1.793Zm26.738 1.571h.023c-1.306-.354-2.103-1.682-1.75-2.966a2.418 2.418 0 0 1 2.945-1.748 2.418 2.418 0 0 1 1.748 2.944 2.438 2.438 0 0 1-2.368 1.814 1.85 1.85 0 0 1-.598-.044Zm-14.32-3.895c-.023-1.35 1.084-2.435 2.412-2.435a2.437 2.437 0 0 1 2.435 2.412 2.423 2.423 0 0 1-2.413 2.435h-.022c-1.306 0-2.413-1.084-2.413-2.412Z" fill="#85ACB0"/><path d="m94.988 13.59-19.92 8.722v16.335c0 8.787 5.068 16.866 13.236 21.094l6.684 3.453 6.685-3.475c8.168-4.228 13.236-12.307 13.236-21.094V22.312l-19.92-8.721Z" fill="#FF444F" style="mix-blend-mode:multiply"/><path d="M92.132 31.985a2.862 2.862 0 0 1 2.856-2.855 2.862 2.862 0 0 1 2.855 2.855v1.328h3.431v-1.328c0-3.475-2.833-6.308-6.308-6.308-3.476 0-6.309 2.833-6.309 6.308v1.328h3.431v-1.328h.044Zm10.935 3.032H86.931a2.022 2.022 0 0 0-2.014 2.014v12.064c0 1.106.907 2.014 2.014 2.014h16.136a2.021 2.021 0 0 0 2.014-2.014V37.03a2.007 2.007 0 0 0-2.014-2.014Z" fill="#fff"/></svg>
